images/flutterwave.svg

<svg fill="none" height="34" viewBox="0 0 173 34" width="173" xmlns="http://www.w3.org/2000/svg" class="flw" data-v-26e1b5ae=""><path clip-rule="evenodd" d="M57.6032 7.93335H57.6704C58.0061 7.93335 58.2075 8.20002 58.2075 8.53335V24C58.2075 24.2667 58.0061 24.5333 57.6704 24.5333C57.4018 24.5333 57.1333 24.3334 57.1333 24V8.46668C57.1333 8.20002 57.3347 7.93335 57.6032 7.93335ZM42.9004 8.73335H53.038C53.3737 8.73335 53.5751 9.06668 53.5751 9.33335C53.5751 9.60002 53.3737 9.86668 53.038 9.86668H43.4375V16.3333H52.0981C52.3666 16.3333 52.6352 16.5333 52.6352 16.8667C52.6352 17.1333 52.4337 17.4 52.0981 17.4H43.5046V24.0667C43.4375 24.4 43.1689 24.6667 42.8332 24.6667C42.4975 24.6667 42.229 24.4 42.229 24.0667V9.33335H42.2961C42.2961 9.00002 42.5647 8.73335 42.9004 8.73335ZM72.3061 13.5333C72.3061 13.2 72.0376 13 71.769 13C71.4334 13 71.2319 13.2667 71.2319 13.5333V20C71.2319 22.2 69.4193 23.9333 67.2038 23.8667C64.854 23.8667 63.5113 22.3333 63.5113 19.9333V13.5333C63.5113 13.2 63.2427 13 62.9742 13C62.7056 13 62.4371 13.2667 62.4371 13.5333V20.1333C62.4371 22.8667 64.1826 24.8667 67.0695 24.8667C68.815 24.9333 70.4934 24 71.2991 22.4667V24.1334C71.2991 24.4667 71.5676 24.6667 71.8362 24.6667C72.1719 24.6667 72.3733 24.4 72.3733 24.1334H72.3061V13.5333ZM82.5109 13.6C82.5109 13.8667 82.2423 14.0667 81.9738 14.0667H78.2813V21.4667C78.2813 23.1333 79.2212 23.7333 80.631 23.7333C81.101 23.7333 81.571 23.6667 81.9738 23.5333C82.2423 23.5333 82.4437 23.7333 82.4437 24C82.4437 24.2 82.3095 24.4 82.108 24.4667C81.571 24.6667 80.9667 24.7333 80.4296 24.7333C78.6841 24.7333 77.2071 23.7333 77.2071 21.6V14.0667H75.9315C75.663 14.0667 75.3944 13.8 75.3944 13.5333C75.3944 13.2667 75.663 13.0667 75.9315 13.0667H77.2071V9.86668C77.2071 9.60002 77.4085 9.33335 77.677 9.33335H77.7442C78.0127 9.33335 78.2813 9.60002 78.2813 9.86668V13.0667H81.9738C82.2423 13.0667 82.5109 13.3333 82.5109 13.6ZM91.1043 14.0667C91.3729 14.0667 91.6414 13.8667 91.6414 13.6C91.6414 13.3333 91.3729 13.0667 91.1043 13.0667H87.4118V9.86668C87.4118 9.60002 87.1433 9.33335 86.8747 9.33335H86.8076C86.5391 9.33335 86.3376 9.60002 86.3376 9.86668V13.0667H85.062C84.7935 13.0667 84.525 13.2667 84.525 13.5333C84.525 13.8 84.7935 14.0667 85.062 14.0667H86.3376V21.6C86.3376 23.7333 87.8146 24.7333 89.5602 24.7333C90.0973 24.7333 90.7015 24.6667 91.2386 24.4667C91.44 24.4 91.5743 24.2 91.5743 24C91.5743 23.7333 91.3729 23.5333 91.1043 23.5333C90.7015 23.6667 90.2316 23.7333 89.7616 23.7333C88.3517 23.7333 87.4118 23.1333 87.4118 21.4667V14.0667H91.1043ZM93.6555 18.8C93.6555 15.4 96.0053 12.7333 99.1607 12.7333C102.45 12.7333 104.532 15.4 104.532 18.8C104.532 19.0667 104.263 19.3333 103.995 19.3333H94.864C95.0654 22.2 97.1466 23.8667 99.4292 23.8667C100.839 23.8667 102.249 23.2667 103.189 22.2667C103.256 22.2 103.39 22.1333 103.525 22.1333C103.793 22.1333 104.062 22.4 104.062 22.6667C104.062 22.8 103.995 22.9333 103.86 23.0667C102.719 24.3333 101.041 25 99.3621 24.9333C96.2738 24.9333 93.6555 22.5333 93.6555 18.8667V18.8ZM94.7968 18.2667C94.9982 15.7333 96.8109 13.8 99.0936 13.8C101.712 13.8 103.122 15.9333 103.256 18.2667H94.7968ZM108.895 16.4C109.634 14.4667 111.447 13.0667 113.528 12.9333C113.864 12.9333 114.132 13.2 114.132 13.6C114.132 13.8667 113.931 14.2 113.595 14.2H113.528C111.044 14.4667 108.895 16.2667 108.895 20V24.2667C108.828 24.6 108.627 24.8 108.291 24.8C108.023 24.8 107.754 24.5333 107.754 24.2667V13.6C107.821 13.2667 108.023 13.0667 108.358 13.0667C108.627 13.0667 108.895 13.3333 108.895 13.6V16.4ZM131.856 12.3333C131.051 12.3333 130.379 12.8667 130.178 13.6667L128.231 19.8667L126.284 13.6667C126.082 12.8667 125.344 12.2667 124.471 12.2667H124.27C123.397 12.2667 122.658 12.8 122.457 13.6667L120.51 19.8L118.63 13.6C118.429 12.8667 117.757 12.2667 116.952 12.2667H116.885C116.012 12.2667 115.341 13 115.341 13.8667C115.341 14.1333 115.408 14.4 115.475 14.6666L115.475 14.6667L118.496 23.2667C118.697 24.1334 119.436 24.7334 120.376 24.8H120.51C121.383 24.8 122.121 24.2 122.39 23.3333L124.337 17.2L126.284 23.3333C126.485 24.2 127.291 24.8 128.164 24.8H128.298C129.238 24.8 130.043 24.2 130.245 23.2667L133.266 14.6C133.333 14.4 133.4 14.1333 133.4 13.9333V13.8667C133.4 13 132.729 12.3333 131.856 12.3333ZM136.556 12.9333C137.831 12.5333 139.107 12.2667 140.45 12.3333C142.329 12.3333 143.672 12.8667 144.679 13.7333C145.619 14.8 146.089 16.2 146.022 17.6V23.0667C146.022 24 145.283 24.7333 144.344 24.7333C143.471 24.7333 142.732 24.1333 142.665 23.2667C141.725 24.2667 140.382 24.8667 138.973 24.8C136.757 24.8 134.81 23.4667 134.81 21.0667C134.81 18.4 136.824 17.1334 139.711 17.1334C140.718 17.1334 141.725 17.2667 142.665 17.6V17.4C142.665 15.9333 141.792 15.2 140.047 15.2C139.241 15.2 138.436 15.2667 137.63 15.5333C137.496 15.6 137.294 15.6 137.16 15.6C136.354 15.6667 135.683 15.0667 135.683 14.2667C135.683 13.6667 136.019 13.1333 136.556 12.9333ZM142.732 20.2667C142.732 21.6 141.591 22.4 139.98 22.3333C138.905 22.3333 138.1 21.8 138.1 20.8667V20.8C138.1 19.8 139.04 19.1333 140.517 19.1333C141.255 19.1333 142.061 19.3333 142.732 19.6V20.2667ZM156.361 13.4667C156.562 12.7333 157.234 12.2667 157.972 12.2667C158.912 12.2667 159.651 13 159.651 13.8667V13.9333C159.651 14.2 159.583 14.4667 159.449 14.7333L155.824 23.3333C155.488 24.2 154.683 24.7334 153.81 24.8H153.608C152.668 24.7334 151.93 24.1334 151.661 23.2667L147.902 14.6667C147.767 14.4 147.7 14.1333 147.7 13.8667C147.767 12.9333 148.506 12.2667 149.379 12.2667C150.184 12.2667 150.856 12.8 151.057 13.5333L153.675 20.5333L156.361 13.4667ZM160.993 19.0667C161.128 22.4 164.015 25 167.371 24.8C168.915 24.8 170.392 24.3333 171.601 23.3333C171.937 23.0667 172.071 22.7333 172.071 22.3333V22.2667C172.071 21.5333 171.467 20.9333 170.728 20.9333C170.46 20.9333 170.124 21 169.923 21.2C169.184 21.7333 168.311 22.0667 167.438 22C165.961 22.0667 164.686 21.0667 164.484 19.6H171.4C172.272 19.5333 172.944 18.8 172.877 17.9333V17.6667C172.877 14.6667 170.258 12.1333 167.036 12.2C163.477 12.2 160.993 15.0667 160.993 18.5333V19.0667ZM167.036 15C165.626 15 164.686 16 164.417 17.6H169.587C169.385 16.0667 168.446 15 167.036 15Z" fill-rule="evenodd" class="flw__type" data-v-26e1b5ae=""></path> <path clip-rule="evenodd" d="M24.9077 0.266665C40.0134 -2 30.3457 10.8667 25.6462 14.4667C28.8687 16.9333 32.1584 20.4 33.5683 24.3333C36.1866 31.5333 29.7415 32.6 24.9077 30.8C19.6039 28.9333 14.9043 24.9333 11.8161 20.2667C10.9433 20.2667 10.0034 20.1333 9.13062 19.8667C10.8762 24.8 11.6147 29.8667 11.1447 34C11.1447 25.6667 7.18366 17.4 1.47706 10.5333C-0.537031 8.13333 1.5442 6.33333 3.35688 8.66667C4.57713 10.3565 5.69794 12.115 6.7137 13.9333C8.66066 7.13333 18.3283 1.2 24.9077 0.266665ZM22.7593 12.5333C25.7133 10.7333 34.7096 1.06667 26.3175 1.93333C21.4837 2.46667 15.6429 6.93333 13.2259 9.8C16.5828 9.4 20.0067 10.8667 22.7593 12.5333ZM13.1588 11.9333C15.4414 11.7333 17.9255 12.9333 19.8053 14.1333C17.9926 15 15.9785 15.5333 13.8973 15.6667C10.809 15.6667 10.2048 12.2 13.1588 11.9333ZM14.4344 20C17.1199 23 20.8124 25.9333 24.7734 27C27.056 27.6 29.6072 27.3333 28.6673 24.0667C27.7274 21.0667 25.3105 18.4 22.9607 16.4C22.2894 16.8667 21.5509 17.3333 20.8124 17.6667C18.7983 18.8 16.6499 19.6 14.4344 20Z" fill-rule="evenodd" class="flw__mark" data-v-26e1b5ae=""></path></svg>

<svg fill="none" height="34" width="173" xmlns="http://www.w3.org/2000/svg" class="flw"><path clip-rule="evenodd" d="M57.603 7.933h.067c.336 0 .538.267.538.6V24a.528.528 0 01-.538.533.528.528 0 01-.537-.533V8.467c0-.267.202-.534.47-.534zm-14.703.8h10.138c.336 0 .537.334.537.6a.528.528 0 01-.537.534h-9.6v6.466h8.66c.269 0 .537.2.537.534a.528.528 0 01-.537.533h-8.593v6.667c-.068.333-.336.6-.672.6a.6.6 0 01-.604-.6V9.333h.067a.6.6 0 01.604-.6zm29.406 4.8A.528.528 0 0071.77 13a.528.528 0 00-.537.533V20c0 2.2-1.813 3.933-4.028 3.867-2.35 0-3.693-1.534-3.693-3.934v-6.4a.528.528 0 00-.537-.533c-.268 0-.537.267-.537.533v6.6c0 2.734 1.746 4.734 4.633 4.734 1.745.066 3.423-.867 4.23-2.4v1.666c0 .334.268.534.536.534a.528.528 0 00.537-.534h-.067v-10.6zm10.205.067c0 .267-.269.467-.537.467H78.28v7.4c0 1.666.94 2.266 2.35 2.266.47 0 .94-.066 1.343-.2.268 0 .47.2.47.467 0 .2-.135.4-.336.467-.537.2-1.141.266-1.678.266-1.746 0-3.223-1-3.223-3.133v-7.533h-1.275c-.269 0-.538-.267-.538-.534 0-.266.269-.466.537-.466h1.276v-3.2c0-.267.202-.534.47-.534h.067c.269 0 .537.267.537.534v3.2h3.693c.268 0 .537.266.537.533zm8.593.467c.269 0 .537-.2.537-.467s-.268-.533-.537-.533h-3.692v-3.2c0-.267-.269-.534-.537-.534h-.067c-.269 0-.47.267-.47.534v3.2h-1.276c-.269 0-.537.2-.537.466 0 .267.268.534.537.534h1.276V21.6c0 2.133 1.477 3.133 3.222 3.133.537 0 1.141-.066 1.679-.266a.502.502 0 00.335-.467.457.457 0 00-.47-.467c-.403.134-.872.2-1.342.2-1.41 0-2.35-.6-2.35-2.266v-7.4h3.692zm2.552 4.733c0-3.4 2.35-6.067 5.505-6.067 3.289 0 5.371 2.667 5.371 6.067 0 .267-.269.533-.537.533h-9.131c.201 2.867 2.283 4.534 4.565 4.534 1.41 0 2.82-.6 3.76-1.6a.514.514 0 01.336-.134c.268 0 .537.267.537.534 0 .133-.067.266-.202.4-1.141 1.266-2.819 1.933-4.498 1.866-3.088 0-5.706-2.4-5.706-6.066V18.8zm1.14-.533c.202-2.534 2.015-4.467 4.298-4.467 2.618 0 4.028 2.133 4.162 4.467h-8.46zm14.099-1.867c.739-1.933 2.552-3.333 4.633-3.467.336 0 .604.267.604.667 0 .267-.201.6-.537.6h-.067c-2.484.267-4.633 2.067-4.633 5.8v4.267c-.067.333-.268.533-.604.533-.268 0-.537-.267-.537-.533V13.6c.067-.333.269-.533.604-.533.269 0 .537.266.537.533v2.8zm22.961-4.067c-.805 0-1.477.534-1.678 1.334l-1.947 6.2-1.947-6.2c-.202-.8-.94-1.4-1.813-1.4h-.201c-.873 0-1.612.533-1.813 1.4L120.51 19.8l-1.88-6.2c-.201-.733-.873-1.333-1.678-1.333h-.067c-.873 0-1.544.733-1.544 1.6 0 .266.067.533.134.8l3.021 8.6c.201.866.94 1.466 1.88 1.533h.134c.873 0 1.611-.6 1.88-1.467l1.947-6.133 1.947 6.133c.201.867 1.007 1.467 1.88 1.467h.134c.94 0 1.745-.6 1.947-1.533l3.021-8.667c.067-.2.134-.467.134-.667v-.066c0-.867-.671-1.534-1.544-1.534zm4.7.6c1.275-.4 2.551-.666 3.894-.6 1.879 0 3.222.534 4.229 1.4a5.465 5.465 0 011.343 3.867v5.467c0 .933-.739 1.666-1.678 1.666-.873 0-1.612-.6-1.679-1.466-.94 1-2.283 1.6-3.692 1.533-2.216 0-4.163-1.333-4.163-3.733 0-2.667 2.014-3.934 4.901-3.934 1.007 0 2.014.134 2.954.467v-.2c0-1.467-.873-2.2-2.618-2.2-.806 0-1.611.067-2.417.333-.134.067-.336.067-.47.067-.806.067-1.477-.533-1.477-1.333 0-.6.336-1.134.873-1.334zm6.176 7.334c0 1.333-1.141 2.133-2.752 2.066-1.075 0-1.88-.533-1.88-1.466V20.8c0-1 .94-1.667 2.417-1.667.738 0 1.544.2 2.215.467v.667zm13.629-6.8c.201-.734.873-1.2 1.611-1.2.94 0 1.679.733 1.679 1.6v.066c0 .267-.068.534-.202.8l-3.625 8.6c-.336.867-1.141 1.4-2.014 1.467h-.202a2.157 2.157 0 01-1.947-1.533l-3.759-8.6a1.757 1.757 0 01-.202-.8c.067-.934.806-1.6 1.679-1.6a1.73 1.73 0 011.678 1.266l2.618 7 2.686-7.066zm4.632 5.6c.135 3.333 3.022 5.933 6.378 5.733 1.544 0 3.021-.467 4.23-1.467.336-.266.47-.6.47-1v-.066c0-.734-.604-1.334-1.343-1.334-.268 0-.604.067-.805.267-.739.533-1.612.867-2.485.8-1.477.067-2.752-.933-2.954-2.4h6.916c.872-.067 1.544-.8 1.477-1.667v-.266c0-3-2.619-5.534-5.841-5.467-3.559 0-6.043 2.867-6.043 6.333v.534zM167.036 15c-1.41 0-2.35 1-2.619 2.6h5.17c-.202-1.533-1.141-2.6-2.551-2.6z" class="flw__type"/><path clip-rule="evenodd" d="M24.908.267c15.105-2.267 5.438 10.6.738 14.2 3.223 2.466 6.512 5.933 7.922 9.866 2.619 7.2-3.826 8.267-8.66 6.467-5.304-1.867-10.004-5.867-13.092-10.533a9.367 9.367 0 01-2.685-.4c1.745 4.933 2.484 10 2.014 14.133 0-8.333-3.961-16.6-9.668-23.467-2.014-2.4.067-4.2 1.88-1.866a53.885 53.885 0 013.357 5.266C8.66 7.133 18.328 1.2 24.908.267zm-2.149 12.266c2.954-1.8 11.95-11.466 3.558-10.6-4.833.534-10.674 5-13.091 7.867 3.357-.4 6.78 1.067 9.533 2.733zm-9.6-.6c2.282-.2 4.766 1 6.646 2.2a16.122 16.122 0 01-5.908 1.534c-3.088 0-3.692-3.467-.738-3.734zM14.434 20c2.686 3 6.378 5.933 10.34 7 2.282.6 4.833.333 3.893-2.933-.94-3-3.357-5.667-5.706-7.667-.672.467-1.41.933-2.149 1.267C18.798 18.8 16.65 19.6 14.434 20z" class="flw__mark"/></svg>
